packages/ui-icons/src/System/32/Metro_32.svg

<svg xmlns="http://www.w3.org/2000/svg" viewBox="0 0 40 40"><path d="M36 20A16 16 0 1 1 20 4a16 16 0 0 1 16 16Zm-11.1 4.9-1.4-4-3.5 5.8-3.5-5.8-1.4 4h1.2v1.8h-7v-1.8h1.3l5-12.9 4.4 7.9 4.4-7.9 5 12.9h1.3v1.8h-6.9v-1.8Z" style="fill-rule:evenodd"/></svg>

<svg xmlns="http://www.w3.org/2000/svg" viewBox="0 0 40 40"><path d="M36,20A16,16,0,1,1,20,4,16,16,0,0,1,36,20ZM24.9,24.9l-1.4-4L20,26.7l-3.5-5.8-1.4,4h1.2v1.8h-7V24.9h1.3l5-12.9L20,19.9,24.4,12l5,12.9h1.3v1.8H23.8V24.9Z" style="fill-rule:evenodd"/></svg>
